X: 42456
T: Westphalia, The
R: waltz
M: 3/4
K: Gmajor
|:D EF|"G" G4 A2|B4 e2|d4- de|d3 D EF|
"G" G4 A2|"(Gdim)" B4 c2|"Am" A4- AB|"D" A4 G2|
"D" F4 A2|"(Am)" c4 g2|"D" f3 A fg|f4 (3gfe|
[1 "D" d2- dd- dA|"D+" e2 d2 c2|"G" B4- Bc|"(D7)" B3:|
[2 "D" d2- dd- dd|c2 F2 A2|"G" G2 GF GA|G3||
|:B dG|"G" g2- gg- gA|f2- ff- fA|e2 fA g2|B4- BG|
"G" B2 A2 G2|B2 A2 G2|"Am" c2 cB cd|"D" c4- cA|
"Am" e2 ee eA|"Am/G#" e2 ee eA|"Am/G" e2 f2 g2|"D/F#" f3 A fe|
[1 "D" d2- dd- dA|"D+" e2 d2 c2|"G" B4- Bc|"D" B3-:|
[2 "D" d2- dd- dd|c2 B2 A2|"G" G2 GF GA|G3||

